icons/tidb-light.svg

<svg width="256" height="256" viewBox="0 0 256 256" fill="none" xmlns="http://www.w3.org/2000/svg">
<rect width="256" height="256" rx="60" fill="#F4F2ED"/>
<path d="M38 75.9583V179.883L128 231.842L218 179.883V75.9583L128 24L38 75.9583Z" fill="#E30C34"/>
<path d="M127.95 58.6917L68.175 93.2V127.708L98.0667 110.442V179.925L127.95 197.15V93.1917L157.825 75.9417L127.95 58.6917Z" fill="white"/>
<path d="M158 110.625V179.883L188 162.567V93.2833L158 110.625Z" fill="white"/>
</svg>

<svg xmlns="http://www.w3.org/2000/svg" width="256" height="256" fill="none"><rect width="256" height="256" fill="#F4F2ED" rx="60"/><path fill="#E30C34" d="M38 75.958v103.925l90 51.959 90-51.959V75.958L128 24z"/><path fill="#fff" d="M127.95 58.692 68.175 93.2v34.508l29.892-17.266v69.483l29.883 17.225V93.192l29.875-17.25zM158 110.625v69.258l30-17.316V93.283z"/></svg>
